assets/images/landing-requisitos.svg

<svg width="88" height="100" viewBox="0 0 88 100" fill="none" xmlns="http://www.w3.org/2000/svg">
<path d="M20.8335 100H25.0013C27.3003 100 29.169 98.1364 29.169 95.8323C29.169 93.5281 27.3054 91.6646 25.0013 91.6646H20.8335C13.9312 91.6646 8.33544 86.0688 8.33544 79.1665V20.8335C8.33544 13.9312 13.9312 8.33544 20.8335 8.33544H54.1652C61.0675 8.33544 66.6633 13.9312 66.6633 20.8335V37.4994C66.6633 39.7985 68.5269 41.6671 70.831 41.6671C73.1352 41.6671 74.9987 39.8035 74.9987 37.4994V20.8335C74.9835 9.33306 65.6657 0.0151922 54.1652 0H20.8335C9.33306 0.0151922 0.0151922 9.33306 0 20.8335V79.1665C0.0151922 90.6669 9.33306 99.9848 20.8335 100Z" fill="#4CAD36"/>
<path d="M54.1702 20.8335H20.8335C18.5345 20.8335 16.6658 22.6971 16.6658 25.0013C16.6658 27.3054 18.5294 29.169 20.8335 29.169H54.1652C56.4643 29.169 58.3329 27.3054 58.3329 25.0013C58.3329 22.6971 56.4693 20.8335 54.1652 20.8335H54.1702Z" fill="#4CAD36"/>
<path d="M58.3329 41.6671C58.3329 39.368 56.4693 37.4994 54.1652 37.4994H20.8335C18.5345 37.4994 16.6658 39.3629 16.6658 41.6671C16.6658 43.9712 18.5294 45.8348 20.8335 45.8348H54.1652C56.4643 45.8348 58.3329 43.9712 58.3329 41.6671Z" fill="#4CAD36"/>
<path d="M20.8335 54.1652C18.5345 54.1652 16.6658 56.0288 16.6658 58.3329C16.6658 60.6371 18.5294 62.5006 20.8335 62.5006H37.4994C39.7985 62.5006 41.6671 60.6371 41.6671 58.3329C41.6671 56.0288 39.8035 54.1652 37.4994 54.1652H20.8335Z" fill="#4CAD36"/>
<path d="M66.1619 53.6638L42.5887 77.237C42.052 77.7738 41.6721 78.4474 41.4898 79.1816L37.6209 94.8347C37.2715 96.2526 37.6867 97.7465 38.7198 98.7796C39.7579 99.8025 41.2468 100.218 42.6647 99.8785L58.3329 96.0095C59.0723 95.8272 59.7458 95.4474 60.2775 94.9106L83.8456 71.3425C88.7679 66.5012 88.8337 58.5861 83.9925 53.6638C79.1513 48.7416 71.2361 48.6757 66.3139 53.517C66.2632 53.5626 66.2177 53.6132 66.1721 53.6588H66.1619V53.6638ZM55.1983 88.1957L47.3692 90.1352L49.3088 82.3062L63.2197 68.3952L69.1092 74.2847L55.1983 88.1957ZM77.946 65.4479L74.9987 68.3952L69.1092 62.5057L72.0565 59.5584C73.6821 57.9328 76.3204 57.9328 77.946 59.5584C79.5463 61.1941 79.5463 63.8122 77.946 65.4479Z" fill="#4CAD36"/>
</svg>

<svg version="1.2" xmlns="http://www.w3.org/2000/svg" viewBox="0 0 88 100" width="88" height="100">
	<style>
		.s0 { fill: #0865d8 } 
	</style>
	<path class="s0" d="m20.83 100h4.17c2.3 0 4.17-1.86 4.17-4.17 0-2.3-1.86-4.17-4.17-4.17h-4.17c-6.9 0-12.49-5.59-12.49-12.49v-58.34c0-6.9 5.59-12.49 12.49-12.49h33.34c6.9 0 12.49 5.59 12.49 12.49v16.67c0 2.3 1.87 4.17 4.17 4.17 2.31 0 4.17-1.87 4.17-4.17v-16.67c-0.02-11.5-9.33-20.81-20.83-20.83h-33.34c-11.5 0.02-20.81 9.33-20.83 20.83v58.34c0.02 11.5 9.33 20.81 20.83 20.83z"/>
	<path class="s0" d="m54.17 20.83h-33.34c-2.3 0-4.16 1.87-4.16 4.17 0 2.31 1.86 4.17 4.16 4.17h33.34c2.29 0 4.16-1.86 4.16-4.17 0-2.3-1.86-4.17-4.16-4.17z"/>
	<path class="s0" d="m58.33 41.67c0-2.3-1.86-4.17-4.16-4.17h-33.34c-2.3 0-4.16 1.86-4.16 4.17 0 2.3 1.86 4.16 4.16 4.16h33.34c2.29 0 4.16-1.86 4.16-4.16z"/>
	<path class="s0" d="m20.83 54.17c-2.3 0-4.16 1.86-4.16 4.16 0 2.31 1.86 4.17 4.16 4.17h16.67c2.3 0 4.17-1.86 4.17-4.17 0-2.3-1.87-4.16-4.17-4.16z"/>
	<path class="s0" d="m66.16 53.66l-23.57 23.58c-0.54 0.53-0.92 1.21-1.1 1.94l-3.87 15.65c-0.35 1.42 0.07 2.92 1.1 3.95 1.04 1.02 2.53 1.44 3.94 1.1l15.67-3.87c0.74-0.18 1.42-0.56 1.95-1.1l23.57-23.57c4.92-4.84 4.98-12.75 0.14-17.68-4.84-4.92-12.75-4.98-17.68-0.14q-0.07 0.07-0.14 0.14h-0.01zm-10.96 34.53l-7.83 1.94 1.94-7.83 13.91-13.91 5.89 5.89zm22.75-22.75l-2.95 2.95-5.89-5.89 2.95-2.95c1.62-1.62 4.26-1.62 5.89 0 1.6 1.64 1.6 4.26 0 5.89z"/>
</svg>
